picto/disposal-of-syringes-framed.svg

<svg class="color-immutable" width="30" height="30" viewBox="0 0 30 30" fill="none" xmlns="http://www.w3.org/2000/svg"><path d="M30 0H0V30H30V0Z" fill="#2D327D"/><path d="M25.5 3C26.325 3 27 3.675 27 4.5V25.5C27 26.325 26.325 27 25.5 27H4.5C3.675 27 3 26.325 3 25.5V4.5C3 3.675 3.675 3 4.5 3H25.5ZM25.5 2.625H4.5C3.46613 2.625 2.625 3.46613 2.625 4.5V25.5C2.625 26.5339 3.46613 27.375 4.5 27.375H25.5C26.5339 27.375 27.375 26.5339 27.375 25.5V4.5C27.375 3.46613 26.5339 2.625 25.5 2.625Z" fill="white"/><path d="M11.0933 19.3216L10.4933 20.3608C10.4108 20.5037 10.4603 20.6881 10.6031 20.7706L11.0578 21.0331C11.2007 21.1156 11.3851 21.0662 11.4676 20.9233L12.0676 19.8841L11.0933 19.3216Z" fill="white"/><path d="M20.0547 7.17494L18.1061 6.04994C17.9275 5.94682 17.697 6.00862 17.5939 6.18719C17.4908 6.36584 17.5526 6.59632 17.7311 6.69944L18.2183 6.98069L17.8433 7.63019L18.8175 8.19269L19.1925 7.54319L19.6796 7.82444C19.8583 7.92757 20.0888 7.86577 20.1919 7.68719C20.2951 7.50862 20.2333 7.27807 20.0547 7.17494Z" fill="white"/><path d="M19.904 9.68602L19.2545 9.31102L16.6564 7.81102L16.0069 7.43602C15.8283 7.3329 15.5978 7.3947 15.4947 7.57327C15.3916 7.75185 15.4534 7.9824 15.6319 8.08552L16.2814 8.46052L10.8064 17.9435C10.7239 18.0864 10.7734 18.2708 10.9162 18.3533L12.9947 19.5533C13.1376 19.6358 13.322 19.5864 13.4045 19.4435L14.3795 17.7547L13.4053 17.1922C13.2266 17.0891 13.1649 16.8586 13.268 16.68C13.3711 16.5013 13.6017 16.4396 13.7803 16.5427L14.7545 17.1052L15.8795 15.1567L14.9053 14.5942C14.7266 14.491 14.6649 14.2605 14.768 14.0819C14.8711 13.9033 15.1017 13.8415 15.2803 13.9447L16.2545 14.5072L17.3795 12.5586L16.4053 11.9961C16.2266 11.893 16.1649 11.6624 16.268 11.4838C16.3711 11.3053 16.6017 11.2435 16.7803 11.3466L17.7545 11.9091L18.8795 9.96052L19.529 10.3355C19.7077 10.4386 19.9381 10.3768 20.0413 10.1983C20.1444 10.0196 20.0827 9.78915 19.904 9.68602Z" fill="white"/><path d="M10.3574 21.4954L9.00745 23.8336L9.2023 23.9461L10.5523 21.6079L10.3574 21.4954Z" fill="white"/></svg>

<svg class="color-immutable" width="30" height="30" viewBox="0 0 30 30" fill="none" xmlns="http://www.w3.org/2000/svg"><g clip-path="url(#a)"><path d="M30 0H0v30h30V0Z" fill="#2D327D"/><path d="M25.5 3c.825 0 1.5.675 1.5 1.5v21c0 .825-.675 1.5-1.5 1.5h-21c-.825 0-1.5-.675-1.5-1.5v-21C3 3.675 3.675 3 4.5 3h21Zm0-.375h-21A1.877 1.877 0 0 0 2.625 4.5v21c0 1.034.841 1.875 1.875 1.875h21a1.877 1.877 0 0 0 1.875-1.875v-21A1.877 1.877 0 0 0 25.5 2.625Z" fill="#fff"/><path d="m11.093 19.322-.6 1.039a.301.301 0 0 0 .11.41l.455.262a.3.3 0 0 0 .41-.11l.6-1.039-.975-.562ZM20.055 7.175 18.106 6.05a.376.376 0 0 0-.512.137.376.376 0 0 0 .137.512l.487.282-.375.65.974.562.375-.65.488.281c.178.104.409.042.512-.137a.376.376 0 0 0-.137-.512ZM19.904 9.686l-.65-.375-2.598-1.5-.65-.375a.376.376 0 0 0-.511.137.376.376 0 0 0 .137.513l.65.375-5.476 9.482a.301.301 0 0 0 .11.41l2.079 1.2a.3.3 0 0 0 .41-.11l.975-1.688-.975-.563a.376.376 0 0 1-.137-.512.376.376 0 0 1 .512-.137l.975.562 1.124-1.948-.974-.563a.376.376 0 0 1-.137-.512.376.376 0 0 1 .512-.137l.975.562 1.125-1.948-.975-.563a.376.376 0 0 1-.137-.512.376.376 0 0 1 .512-.137l.974.562 1.125-1.948.65.374c.179.104.41.042.512-.137a.376.376 0 0 0-.137-.512ZM10.357 21.495l-1.35 2.339.195.112 1.35-2.338-.195-.113Z" fill="#fff"/></g><defs><clipPath id="a"><path fill="#fff" d="M0 0h30v30H0z"/></clipPath></defs></svg>
